!!!!SEGMENT: pl-wtm--r-2527_hertz-michal--gawot.krn
!!!cenid: 18xx:3097
!!!COM: Hertz, Michał
!!!COM-rismID: pe41023359
!!!CDT: 1844/09/28-~1918
!!!CNT: Polish
!!!OTL: Gawot
!!!PDT:
!!!AGN:
!!!SMS-siglum: PL-Wtm
!!!SMS-shelfmark: R 2527
!!!SMS-shelfwork: W
!!!SMS-variant:
!!!SMS-altvar:
!!!NIFC-rismSourceID: 1001082711
!!!NIFC-islandoraID:
!!!URL-pdf-islandora:
!!!URL-scan:
!!!ONB-nifc:
!!!OMD: Andantino.
!!!AIN: 2 piano
!!!key:
**kern	**kern	**dynam
*part2	*part1	*part1
*staff2	*staff1	*
*Ipiano	*Ipiano	*
*I"[Piano]	*I"[Piano]	*
*clefF4	*clefG2	*
*k[f#c#g#d#a#]	*k[f#c#g#d#a#]	*
*B:	*B:	*
*M4/4	*M4/4	*
*met(c)	*met(c)	*
*2\right	*2\right	*
*>[A,A,B]	*>[A,A,B]	*
!LO:TX:t=P:problem=all\right&colon; global	!LO:TX:t=P:problem=all\right&colon; global	!
4r	4r	pp
8r	8r	.
8BB/	8A#/ 8e/ 8f#/	.
=1	=1	=1
*>A	*>A	*
4BB/	4B/ 4d#/ 4f#/	.
4F#\ 4B\ 4d#\	8g#/L	.
.	8a#/J	.
4D#\	4b\	.
4F#\ 4B\ 4d#\	8cc#\L	.
.	8dd#\J	.
=2	=2	=2
*	*^	*
4C#/	(>8ff#/L	(<2f#\	.
.	8ee/)	.	.
4F#\ 4A#\ 4e\	8dd#'>/	.	.
.	8cc#'>/J	.	.
4BB/	(>4dd#/	(<8b\L)	.
.	.	8a#\)	.
4F#\ 4B\ 4d#\	4b/)	8g#'<\	.
.	.	8f#'<\J	.
=3	=3	=3	=3
.	.	(>16qqf#\LL	.
.	.	16qqg#\JJ)	.
*	*	*^	*
4AA#/	(>4ee/	[<1f#	4ee\	.
4F#\ 4A#\ 4e\	4cc#/)	.	4cc#\	.
4BB/	(>4dd#/	.	4dd#\	.
4F#\ 4B\ 4d#\	4b/)	.	4b\	.
*	*v	*v	*v	*
!!LO:LB:g=original
=4	=4	=4
.	16qqcc#/LL	.
.	16qqdd#/JJ	.
*^	*^	*
(>8A#/L	4F#\	(>8cc#/L	2f#\_<	.
8G#/)	.	8b/)	.	.
8A#'>/	4r	8cc#'>/	.	.
8B'>/J	.	8dd#'>/J	.	.
4A#/	4r	4cc#/	8f#\L]	.
.	.	.	8e\	.
4r	8r	8r	8d#\	.
.	8AA#/	8f#/	8c#\J	.
*	*	*v	*v	*
=5	=5	=5	=5
4BB/	(>8BB\L	4B/ 4d#/ 4f#/	.
.	8F#\J)	.	.
4ryy	4B\ 4d#\	8g#/L	.
.	.	8a#/J	.
2ryy	(>8D#\L	4b\	.
.	8F#\J)	.	.
.	4B\ 4d#\	8cc#\L	.
.	.	8dd#\J	.
=6	=6	=6	=6
*	*	*^	*
4C#/	(>8C#\L	(>8ff#/L	(<2f#\	.
.	8F#\J)	8ee/)	.	.
4ryy	4F#\ 4A#\ 4e\	8dd#/	.	.
.	.	8cc#/J	.	.
4BB/	(>8BB\L	(>4dd#/	(<8b\L)	.
.	8F#\J)	.	8a#\)	.
4ryy	4F#\ 4B\ 4d#\	4b/)	8g#\	.
.	.	.	8f#\J	.
=7	=7	=7	=7	=7
.	.	.	(>16qqf#\LL	.
.	.	.	16qqg#\JJ)	.
4AA#/	(>8AA#\L	(>4ee/	(<1f#	.
.	8F#\J)	.	.	.
4ryy	4A#\ 4e\	4cc#/)	.	.
4BB/	(>8BB\L	(>4dd#/	.	.
.	8F#\J)	.	.	.
4ryy	4B\ 4d#\	8.b/L)	.	.
.	.	16dd#/Jk)	.	.
*v	*v	*	*	*
!!LO:LB:g=original
=8	=8	=8	=8
8FF#\ 8C#\ 8F#\ 8c#\	8ryy	8e\ 8a#\ 8gg#\	.
16r	4a#/	16r	.
16C#/	.	16e\ 16gn\	.
4F#\	.	4r	.
.	16b/LL	.	.
.	16cc#/JJ	.	.
.	.	(<16qqb/LL	.
.	.	16qqcc#/JJ)	.
(>16B\LL	2ryy	[<4d#\ [<\4f# [>\4b	.
16F#\	.	.	.
16D#\	.	.	.
16F#\JJ)	.	.	.
!	!LO:TX:t=P:problem=u góry jakaś notka/poprawka, trudno powiedzieć	!	!
(<16BB/LL	.	16d#\LL] 16f#\] 16b\]	.
16GG#/	.	16f#'>\ 16b\ 16dd#\	.
!	!	!LO:TX:a:t=P:problem=# below	!
16E/	.	16e'>\ 16g#X\ 16cc#\	.
16EE#X/JJ)	.	16c#'>\JJ 16g#\ 16b\	.
*	*v	*v	*
=9	=9	=9
4E@\	8f#'>\L 8a#\	p
.	8b'>\J	.
4A#\ 4c#\ 4f#\	[>4cc#\	.
4AA#/	(>8cc#\L]	.
.	8dd#\)	<
4A#\ 4c#\ 4f#\	8ee#X\	.
.	8ff#\J	.
=10	=10	=10
4C#/	8ff##X'>\L	.
.	8gg#'>\J	.
4B\ 4c#\ 4e#X\	[>4aa#^>\	.
4E#X\	8.aa#\L]	.
.	16gg#\Jk	[
4B\ 4c#\ 4e#\	(>16ff##\LL	.
.	16ee#X\)	.
.	16dd#'>\	.
.	16cc#'>\JJ	.
=11	=11	=11
4G#\	(>4dd#\	>
.	(<16qqe#X/LL	.
.	16qqf#/JJ	.
4G#\ 4B\ 4c#\	4e#hy/)	.
4E#X\	(>4ddn\)	.
.	(<16qqe#/LL	.
.	16qqf#/JJ	.
4G#\ 4B\ 4c#\	4e#/))	]]
!!LO:LB:g=original
=12	=12	=12
*	*^	*
!	!	!	!LO:DY:rj
4C#/	2ryy	4ee#X\	p
.	.	(<16qqdd#/LL	.
.	.	16qqee#/JJ	.
4G#\ 4B\ 4c#\ 4e#X\	.	4dd#\)	.
.	.	16qqe#X\LL	.
.	.	16qqf#\JJ	.
8c#\L	4cc#/	4e#\ 4b\ 4cc#\	.
8B#X\	.	.	.
8Bn\	4r	4ryy	.
8G#\J	.	.	.
*	*v	*v	*
=13	=13	=13
4F#\	8a#\L	.
.	8b\J	p
4A#\ 4c#\ 4f#\	[>4cc#\	.
4AA#/	(>8cc#\L]	.
.	8dd#\)	.
4A#\ 4c#\ 4f#\	8ee#X'>\	.
.	8ff#'>\J	.
=14	=14	=14
4C#/	8ff##X'>\L	<
.	8gg#'>\J	.
4B\ 4c#\ 4e#X\	[>4aa#\	.
4E#X\	8.aa#\L]	.
.	16gg#\Jk	.
4G#\ 4B\ 4c#\	(>16ff##\LL	.
.	16ee#X\)	.
.	16dd#'>\	.
.	16cc#'>\JJ	[[
=15	=15	=15
4G#\	(>4dd#\	>
.	(<16qqe#y/LL	.
.	16qqf#/JJ	.
4G#\ 4B\ 4c#\	4e#y/))	.
!LO:SIC:v:s:t=4E#	!	!
4E\	(>4ddn\	.
.	(<16qqe#/LL	.
.	16qqf#/JJ	.
4G#\ 4B\ 4c#\	4e#/))	]]
!!LO:LB:g=original
=16	=16	=16
*^	*	*
!	!	!	!LO:DY:rj
(>8c#/L	4.C#\	(>4.e#X\ 4.ee#X\	p
8B#X/)	.	.	.
8Bn'>/	.	.	.
8A#'>/J 8c#	8E#X\ 8G#\	16dd#/LL)	.
.	.	16cc#/JJ	.
4A#/ 4c#	(>8.F#\L 8.A#\	4f#\ 4a#\ 4cc#\ 4ff#\	.
.	16E#\K)	.	.
4ryy	8En\	8r	.
.	16D#\L	8A#/ 8e#/ 8f#/	.
.	16C#\JJ	.	.
*v	*v	*	*
=17	=17	=17
4BB/	4B/ 4d#/ 4f#/	p
4F#\ 4B\ 4d#\	8g#/L	.
.	8a#/J	.
4D#\	4b\	.
4F#\ 4B\ 4d#\	8cc#\L	.
.	8dd#\J	.
=18	=18	=18
*	*^	*
4C#/	(>8ff#/L	2f#\	.
.	8ee/)	.	.
4F#\ 4A#\ 4e\	8dd#/'>	.	.
.	8cc#/J'>	.	.
4BB/	(>4dd#/	(8b\L	.
.	.	8a#\)	.
4F#\ 4B\ 4d#\	4b/	8g#'<\	.
.	.	8f#'<\J)	.
=19	=19	=19	=19
4AA#/	(>4ee/	[<1f#	.
4F#\ 4A#\ 4e\	4cc#/)	.	.
4BB/	(>4dd#/	.	.
4F#\ 4B\ 4d#\	4b/)	.	.
=20	=20	=20	=20
*^	*	*^	*
(>8A#/L	4FF#\ 4C#\ 4F#\	(>8cc#/L	2f#\]	2..ryy	.
8G#/)	.	8b/	.	.	.
8A#'>/	4r	8cc#/)'>	.	.	.
8B'>/J	.	8dd#/J'>	.	.	.
.	.	(<16qqcc#/LL	.	.	.
.	.	16qqdd#/JJ)	.	.	.
4A#/	4r	4cc#/	(>8f#\L	.	.
.	.	.	8e\)	.	.
4r	8r	4r	8d#\	.	.
.	8AA#/	.	8c#\J	8e 8f#	.
*	*	*	*v	*v	*
!!LO:LB:g=original
=21	=21	=21	=21	=21
4r	8BB/	4f#/	4B\ 4d#\	.
.	4.F#\	.	.	.
4B/ 4d#/	.	8g#/L	4ryy	.
.	.	8a#/J	.	.
4r	8D#\L	4b/	2ryy	.
.	8F#\J	.	.	.
4B/ 4d#/	4ryy	8cc#/L	.	.
.	.	8dd#/J	.	.
=22	=22	=22	=22	=22
4r	8C#\	(>8ff#/L	2f#\	.
.	4.F#\	8ee/)	.	.
4A#/ 4e	.	8dd#'>/	.	.
.	.	8cc#'>/J	.	.
4r	8BB\	(>4dd#/	(<8b\L	.
.	4.F#\	.	8a#\)	.
4B/ 4d#	.	4b/)	8g#'<\	.
.	.	.	8f#'<\J	.
=23	=23	=23	=23	=23
.	.	.	(>16qqf#\LL	.
.	.	.	16qqg#\JJ)	.
4r	8AA#\	(>4ee/	(<1f#	.
.	4.F#\	.	.	.
4A#/ 4c#/ 4e/	.	4cc#/)	.	.
4r	8BB\	(>4dd#/	.	.
.	4.F#\	.	.	.
4B/ 4d#/	.	8.b/L)	.	.
.	.	16dd#/Jk	.	.
*v	*v	*	*	*
=24	=24	=24	=24
8C#:\ 8F#:\ 8c#:\	8ryy	8e:\) 8a#:\ 8gg#:\	.
16r	4a#/^>	4d#\	.
16C#/	.	.	.
4F#\	.	.	.
!	!	!LO:TX:t=P:problem=zapis słabo widoczny	!
.	16b/LL	16e\LL	.
.	16cc#/JJ	16e\JJ 16f#\	.
.	.	(<16qqb/LL	.
.	.	16qqcc#/JJ)	.
(>16B\LL	4ryy	[<4d#\ [<\4f# [>\4b	.
16F#\	.	.	.
16D#\	.	.	.
16F#\JJ	.	.	.
16BB\LL)	16bLL	16d#\] 16f#\] 16b\]	.
16G#\	16b	8.B\	.
16F##X\	16a#X	.	.
!LO:TX:a:t=P:problem=# above	!	!	!
16F#X\JJ	16anJJ	.	.
*	*v	*v	*
!!LO:PB:g=original
=25:|!	=25:|!	=25:|!
*>B	*>B	*
*k[f#c#g#d#]	*k[f#c#g#d#]	*
!	!LO:TX:a:t=Trio.	!LO:DY:rj
.	(<8qqg#/	p
4E\	2b'>\)	.
4G#\ 4B\ 4e\	.	.
.	(<8qqb/	.
!	!LO:TX:a:t=6:color=gray	!
4GG#/	2ee'>\)	.
4G#\ 4B\ 4e\	.	.
=26	=26	=26
.	(>8qa/	.
*	*^	*
4FF#/	(>8ee/L)	1a	.
.	8dd#/	.	.
4A\ 4B\ 4d#\	8ff#/	.	.
.	8ee/J	.	.
4BB/	2dd#/)	.	.
4A\ 4B\ 4d#\	.	.	.
*	*v	*v	*
=27	=27	=27
.	8qf#/	.
4BB/	2a/	.
4A\ 4B\ 4d#\	.	.
.	8qa/	.
4D#\	2cc#\	.
4A\ 4B\ 4d#\	.	.
=28	=28	=28
.	8qg#/	.
*	*^	*
4E\	(>8cc#/L	1g#	.
.	8b/	.	.
4G#\ 4B\ 4e\	8dd#/	.	.
.	8cc#/J	.	.
4GG#/	2b/	.	.
4G#\ 4B\ 4e\	.	.	.
*	*v	*v	*
!!LO:LB:g=original
=29	=29	=29
.	8qe/	.
4C#/	2g#/)	.
4G#\ 4c#\ 4e\	.	.
.	8qg#/	.
4GG#/	2b\	.
4G#\ 4B\ 4e\	.	.
=30	=30	=30
.	8qc#/	.
*	*^	*
4.F#\	(>8b/L	2c#\	.
.	8a/	.	.
.	8g#/	.	.
8FF#:\ 8C#:\ 8F#:\ 8A:\	8a/J)	.	.
(>8AA\L	4.f#/ 4.dd#	2ryy	.
8C#\	.	.	.
8F#\	.	.	.
8AA\J)	8e/ 8cc#	.	.
=31	=31	=31	=31
4BB/	(>8b/L	4d#\	.
.	8f#/	.	.
4A\ 4B\	8e#X/	4d#\	.
.	8f#/J)	.	.
4r	4.a/	8r	.
!	!	!LO:TX:a:t=P:problem=# below	!
.	.	8B#X\L	.
8r	.	8c#\	.
8A\ 8B\	8g#/	8d#\J	.
=32	=32	=32	=32
.	8qg#/	.	.
8r	[>2b/	8r	.
(>8G#\L 8B\	.	(>8e\L	.
8F#\ 8A\	.	8d#\	.
8E\J 8G#\	.	8c#\J	.
16qqF#/LL 16qqA/	.	.	.
16qqG#/JJ 16qqB/	.	.	.
4F#\ 4A\)	8b/L]	4d#\)	.
.	(>8cc#/	.	.
8r	8b/)	8r	.
8BB\ 8B\	8g#'>/J	8d#\	.
*	*v	*v	*
!!LO:LB:g=original
=33	=33	=33
.	(<8qe/ 8qg#/	.
4E\	2b\)	.
4G#\ 4B\ 4e\	.	.
.	(>8qqb\	.
4GG#/	2ee\)	.
4G#\ 4B\ 4e\	.	.
=34	=34	=34
.	8qa/	.
*	*^	*
4FF#/	(>8ee/L	[<2a\	.
.	8dd#/	.	.
4A\ 4B\ 4d#\	8ff#/	.	.
.	8ee/J	.	.
4BB/	2dd#/)	8a\L]	.
.	.	(>8e#X\	.
4A\ 4B\	.	8g#\	.
.	.	8f#\J)	.
*	*v	*v	*
=35	=35	=35
.	8qf#/	.
4BB/	2a/	.
4A\ 4B\ 4d#\	.	.
.	8qa/	.
4D#\	2cc#\	.
4A\ 4B\ 4d#\	.	.
=36	=36	=36
.	8qg#/	.
*	*^	*
4E\	(>8cc#/L	[>2g#\	.
.	8b/	.	.
4G#\ 4B\ 4e\	8dd#/	.	.
.	8cc#/J	.	.
4GG#/	2b/)	8g#\L]	.
.	.	(>8d#\	.
4G#\ 4B	.	8f#\	.
.	.	8e\J)	.
*	*v	*v	*
!!LO:LB:g=original
=37	=37	=37
.	8qe/	.
4C#/	2g#/	.
4G#\ 4c#\ 4e\	.	.
.	8qg#/	.
4GG#/	2b\	.
4G#\ 4B\ 4e\	.	.
=38	=38	=38
*	*^	*
4F#\	(>8b/L	(<2c#\	.
.	8a/	.	.
4FF#:\ 4C#:\ 4F#:\ 4A:\	8g#/	.	.
.	8a/J)	.	.
(>8.AA\L	4.f#\) 4.dd#	2ryy	.
16BB\Jk	.	.	.
16BB#X\LL	.	.	.
16C#\	.	.	.
16F#\	8e\ 8cc#	.	.
16AA\JJ)	.	.	.
=39	=39	=39	=39
4BB/	(>8b/L	4d#\	.
.	8f#/	.	.
4A\ 4B\	8e#X/	4d#\	.
.	8f#/J	.	.
4r	4.a/)	8r	.
.	.	8B#X'\L	.
8r	.	8c#'\	.
8A\ 8B\	8g#/	8d#'\J	.
*	*v	*v	*
=40	=40	=40
8G#\L 8B\	8e\L	.
8G#\	8B\ 8e\	.
8E\	8B\ 8e\ 8g#\	.
8E\J 8G#\	8e\J 8g#\	.
!LO:TX:b:t=Da Capo al Fine.	!	!
8qEE/	.	.
2E\ 2B\	2e\ 2g#\ 2ee\	.
=||	=||	=||
*-	*-	*-
!!!system-decoration: [(s1,s2)]
!!!RDF**kern: > = above
!!!RDF**kern: < = below
!!!RDF**kern: @ = marked note, color=gray
!!!ENC: Andrzej Gręziak
!!!END: 2021-10-27
!!!EED: Jędrzej Mróz
!!!ESR: 2021-11-04
